src/assets/fleet-icons/star-filled.svg

<svg width="20" height="20" viewBox="0 0 20 20" fill="none" xmlns="http://www.w3.org/2000/svg">
    <path
        d="M9.99998 3.95834L11.4583 8.54168H16.0416L12.2916 11.4583L13.5416 16.0417L9.99998 13.125L6.45831 16.0417L7.70831 11.4583L3.95831 8.54168H8.54165L9.99998 3.95834Z"
        stroke="currentColor" fill="currentColor" stroke-linecap="round" stroke-linejoin="round" />
</svg>

<svg width="20" height="20" fill="none" xmlns="http://www.w3.org/2000/svg">
    <path
        d="m10 3.958 1.458 4.584h4.584l-3.75 2.916 1.25 4.584L10 13.125l-3.542 2.917 1.25-4.584-3.75-2.916h4.584L10 3.958Z"
        stroke="currentColor" fill="currentColor" stroke-linecap="round" stroke-linejoin="round" />
</svg>
